Costumes/x-block.svg

<?xml version="1.0" encoding="UTF-8" standalone="no"?>
<svg
   version="1.1"
   width="58.297626"
   height="79.610428"
   id="svg5"
   sodipodi:docname="x-block.svg"
   xmlns:inkscape="http://www.inkscape.org/namespaces/inkscape"
   xmlns:sodipodi="http://sodipodi.sourceforge.net/DTD/sodipodi-0.dtd"
   xmlns="http://www.w3.org/2000/svg"
   xmlns:svg="http://www.w3.org/2000/svg">
  <defs
     id="defs9" />
  <sodipodi:namedview
     id="namedview7"
     pagecolor="#ffffff"
     bordercolor="#000000"
     borderopacity="0.25"
     inkscape:showpageshadow="2"
     inkscape:pageopacity="0.0"
     inkscape:pagecheckerboard="0"
     inkscape:deskcolor="#d1d1d1" />
  <!-- Exported by Scratch - http://scratch.mit.edu/ -->
  <g
     id="ID0.7413995480164886"
     transform="translate(-0.52410331,-0.20500718)">
    <path
       id="ID0.614277433604002"
       d="m 325.25,347.25 c 0.489,-0.52 0.659,0.02 1.75,0.75 4.349,2.965 7.402,7.264 13,9 -0.345,17.988 -18.505,18.161 -21,34 6.597,8.07 10.662,18.672 19,25 0.651,4.318 -1.728,5.605 -3,8 -0.155,2.822 2.827,2.507 4,4 -2.516,8.15 -13.284,8.049 -16,16 -0.333,0 -0.667,0 -1,0 -6.244,-10.422 -13.83,-19.503 -19,-31 -5.169,5.021 -9.975,13.961 -9,22 -5.064,0.115 -7.079,1.049 -9,6 -6.876,-1.457 -9.592,-7.075 -16,-9 0,-1 0,-2 0,-3 7.682,-10.651 14.318,-22.349 21,-34 -3.555,-8.445 -8.05,-15.95 -16,-20 2.705,-7.289 5.709,-5.959 2,-14 4.159,-4.174 8.719,-7.947 14,-11 6.996,5.338 9.625,15.042 17,20 2.119,-7.214 5.954,-12.358 9,-19 2.048,-0.882 4.205,1.339 6,0.5 1.731,-0.798 1.712,-3.349 3.25,-4.25 z M 308,377 c -10.532,-3.468 -10.136,-17.864 -20,-22 -0.992,4.342 -6.466,4.2 -8,8 8.332,7.334 15.567,15.767 20,27 -5.87,12.464 -14.958,21.709 -19,36 2.46,1.873 5.54,3.127 8,5 6.076,-10.257 8.171,-24.496 18,-31 6.804,8.529 10.299,20.368 18,28 1.584,-3.75 3.032,-7.635 8,-8 -4.981,-10.019 -12.562,-17.438 -19,-26 -0.532,-16.396 13.495,-20.539 21,-33 -11.529,-18.547 -16.369,12.43 -27,16 z"
       transform="matrix(0.82109332,0,0,0.82109332,-220.35,-284.75)" />
    <path
       id="ID0.7932597128674388"
       fill="#ff9400"
       d="m 335,361 c -7.505,12.461 -21.532,16.604 -21,33 6.438,8.562 14.019,15.981 19,26 -4.968,0.365 -6.416,4.25 -8,8 -7.701,-7.632 -11.196,-19.471 -18,-28 -9.829,6.504 -11.924,20.743 -18,31 -2.46,-1.873 -5.54,-3.127 -8,-5 4.042,-14.291 13.13,-23.536 19,-36 -4.433,-11.233 -11.668,-19.666 -20,-27 1.534,-3.8 7.008,-3.658 8,-8 9.864,4.136 9.468,18.532 20,22 10.631,-3.57 15.471,-34.547 27,-16 z"
       transform="matrix(0.82109332,0,0,0.82109332,-220.35,-284.75)" />
  </g>
</svg>

<svg version="1.1" width="59" height="80" xmlns="http://www.w3.org/2000/svg" xmlns:xlink="http://www.w3.org/1999/xlink">
  <!-- Exported by Scratch - http://scratch.mit.edu/ -->
  <g id="ID0.7413995480164886">
    <path id="ID0.614277433604002" d="M 325.250 347.250 C 325.739 346.730 325.909 347.270 327 348 C 331.349 350.965 334.402 355.264 340 357 C 339.655 374.988 321.495 375.161 319 391 C 325.597 399.070 329.662 409.672 338 416 C 338.651 420.318 336.272 421.605 335 424 C 334.845 426.822 337.827 426.507 339 428 C 336.484 436.150 325.716 436.049 323 444 C 322.667 444 322.333 444 322 444 C 315.756 433.578 308.170 424.497 303 413 C 297.831 418.021 293.025 426.961 294 435 C 288.936 435.115 286.921 436.049 285 441 C 278.124 439.543 275.408 433.925 269 432 C 269 431 269 430 269 429 C 276.682 418.349 283.318 406.651 290 395 C 286.445 386.555 281.950 379.050 274 375 C 276.705 367.711 279.709 369.041 276 361 C 280.159 356.826 284.719 353.053 290 350 C 296.996 355.338 299.625 365.042 307 370 C 309.119 362.786 312.954 357.642 316 351 C 318.048 350.118 320.205 352.339 322 351.500 C 323.731 350.702 323.712 348.151 325.250 347.250 Z M 308 377 C 297.468 373.532 297.864 359.136 288 355 C 287.008 359.342 281.534 359.200 280 363 C 288.332 370.334 295.567 378.767 300 390 C 294.130 402.464 285.042 411.709 281 426 C 283.460 427.873 286.540 429.127 289 431 C 295.076 420.743 297.171 406.504 307 400 C 313.804 408.529 317.299 420.368 325 428 C 326.584 424.250 328.032 420.365 333 420 C 328.019 409.981 320.438 402.562 314 394 C 313.468 377.604 327.495 373.461 335 361 C 323.471 342.453 318.631 373.430 308 377 Z " transform="matrix(0.8210933208465576, 0, 0, 0.8210933208465576, -220.35, -284.75)"/>
    <path id="ID0.7932597128674388" fill="#FF9400" d="M 335 361 C 327.495 373.461 313.468 377.604 314 394 C 320.438 402.562 328.019 409.981 333 420 C 328.032 420.365 326.584 424.250 325 428 C 317.299 420.368 313.804 408.529 307 400 C 297.171 406.504 295.076 420.743 289 431 C 286.540 429.127 283.460 427.873 281 426 C 285.042 411.709 294.130 402.464 300 390 C 295.567 378.767 288.332 370.334 280 363 C 281.534 359.200 287.008 359.342 288 355 C 297.864 359.136 297.468 373.532 308 377 C 318.631 373.430 323.471 342.453 335 361 Z " transform="matrix(0.8210933208465576, 0, 0, 0.8210933208465576, -220.35, -284.75)"/>
  </g>
</svg>
